X: 2
T:Kesh Jig, The
M:6/8
L:1/8
C:Traditional
R:double jig
K:G
D \
|: "G"G2G GAB | "D"A2A ABd | "G"edd gdd | edB "D"dBA |
   "G"G2G GAB | "D"A2A ABd | "G"edd gdB |\
[1 "D"AGF "G"G2D :|[2 "D"AGF "G"G3 ||
|: "G"B2 B dBd | "C"ege "G"dBG | B2B dBG | "Am"A2A "D"AGA |
   "G"B2 B dBd | "C"ege "G"dBd | "G"g2g "D" aga |\
  [1 "G"bgf g3 :|[2 "G"bgf g2D |]
N:Portland Collection, pg 118 - abc by Peter Ostapenko.
N:Last update - PO 3/27/2007.
N:G Major
